X: 3024
T: Minuet
%R: minuet, waltz
B: Henry Playford "Apollo's Banquet", London 1687 (5th Edition)
F: https://archive.org/details/apollosbanquetco01rugg
Z: 2017 John Chambers <jc:trillian.mit.edu>
M: 3/4
L: 1/4
K: Gm
% - - - - - - - - - -
|:\
g d b | a> a b | g g> a | ^f> =e d |\
e c f | d> =e  ^f | g a ^f | g3 ::\
d d =e | f f f | d> d e | c2 f |
f g a | b f d | e c> B | B2 B |\
f f ^f | g g a | b b a | g g f |\
e e d | c d B | c A> G | HG3 |]
% - - - - - - - - - -

%%sep 1 1 500
%%sep 1 1 500

